icon-themes/breeze_svg/cmd/lc_basicshapes.cube.svg

<svg viewBox="0 0 24 24" xmlns="http://www.w3.org/2000/svg"><path d="m6.6796875 4-1.984375 2h12.5957035l2.015625-2zm13.3203125.6992188-2 1.9882812v11.619141l2-1.994141zm-16 2.3007812v13h13v-13z" fill="#4d4d4d"/></svg>

<svg xmlns="http://www.w3.org/2000/svg" viewBox="0 0 24 24">
 <path 
     style="fill:#4d4d4d" 
     d="M 6.6796875 4 L 4.6953125 6 L 17.291016 6 L 19.306641 4 L 6.6796875 4 z M 20 4.6992188 L 18 6.6875 L 18 18.306641 L 20 16.3125 L 20 4.6992188 z M 4 7 L 4 20 L 17 20 L 17 7 L 4 7 z "
     />
 </svg>
